flaticon/design/edit-corner.svg

<svg xmlns="http://www.w3.org/2000/svg" width="32" height="32" viewBox="0 0 24 24">
    <path d="M 23.601562 1.199219 L 3.199219 1.199219 L 3.199219 0 L 0 0 L 0 3.199219 L 1.199219 3.199219 L 1.199219 23.601562 C 1.199219 23.820312 1.378906 24 1.601562 24 C 1.820312 24 2 23.820312 2 23.601562 L 2 3.199219 L 3.199219 3.199219 L 3.199219 2 L 23.601562 2 C 23.820312 2 24 1.820312 24 1.601562 C 24 1.378906 23.820312 1.199219 23.601562 1.199219 Z M 2.398438 2.398438 L 0.800781 2.398438 L 0.800781 0.800781 L 2.398438 0.800781 Z M 2.398438 2.398438"/>
    <path d="M 5.199219 3.199219 C 4.097656 3.199219 3.199219 4.097656 3.199219 5.199219 C 3.199219 6.304688 4.097656 7.199219 5.199219 7.199219 C 6.304688 7.199219 7.199219 6.304688 7.199219 5.199219 C 7.199219 4.097656 6.304688 3.199219 5.199219 3.199219 Z M 5.199219 6.398438 C 4.539062 6.398438 4 5.863281 4 5.199219 C 4 4.539062 4.539062 4 5.199219 4 C 5.863281 4 6.398438 4.539062 6.398438 5.199219 C 6.398438 5.863281 5.863281 6.398438 5.199219 6.398438 Z M 5.199219 6.398438"/>
    <path d="M5.601562 5.199219C5.601562 5.421875 5.421875 5.601562 5.199219 5.601562 4.980469 5.601562 4.800781 5.421875 4.800781 5.199219 4.800781 4.980469 4.980469 4.800781 5.199219 4.800781 5.421875 4.800781 5.601562 4.980469 5.601562 5.199219zM14.792969 10.140625C14.695312 10.023438 14.535156 9.972656 14.386719 10.015625 14.238281 10.054688 14.125 10.175781 14.09375 10.328125L12.40625 19.476562C12.375 19.652344 12.460938 19.824219 12.617188 19.90625 12.675781 19.933594 12.738281 19.949219 12.800781 19.949219 12.90625 19.949219 13.007812 19.90625 13.085938 19.828125L15.839844 16.980469 17.230469 22.183594C17.28125 22.359375 17.441406 22.480469 17.617188 22.480469 17.652344 22.480469 17.6875 22.472656 17.722656 22.464844 17.933594 22.40625 18.0625 22.1875 18.003906 21.976562L16.609375 16.773438 20.417969 17.863281C20.585938 17.910156 20.769531 17.84375 20.863281 17.695312 20.957031 17.546875 20.945312 17.351562 20.832031 17.21875zM16.152344 15.8125C16.140625 15.808594 16.128906 15.808594 16.117188 15.804688 16.105469 15.804688 16.09375 15.800781 16.078125 15.800781 16.03125 15.796875 15.984375 15.796875 15.941406 15.808594 15.941406 15.808594 15.941406 15.808594 15.9375 15.808594 15.894531 15.820312 15.851562 15.84375 15.8125 15.871094 15.804688 15.878906 15.792969 15.886719 15.785156 15.894531 15.773438 15.902344 15.765625 15.910156 15.753906 15.917969L13.433594 18.316406 14.730469 11.296875 19.363281 16.730469zM16.152344 15.8125"/>
</svg>

<svg xmlns="http://www.w3.org/2000/svg" width="32" height="32" viewBox="0 0 24 24">
    <path d="M23.602 1.2H3.199V0H0v3.2h1.2v20.402a.401.401 0 0 0 .8 0V3.199h1.2V2h20.402a.4.4 0 0 0 0-.8zM2.398 2.397H.801V.801h1.597zm0 0"/>
    <path d="M5.2 3.2c-1.102 0-2 .898-2 2a1.999 1.999 0 1 0 2-2zm0 3.198A1.2 1.2 0 1 1 5.2 4a1.2 1.2 0 0 1 0 2.4zm0 0"/>
    <path d="M5.602 5.2a.401.401 0 1 1 0 0zm0 0M14.793 10.14a.39.39 0 0 0-.406-.124.406.406 0 0 0-.293.312l-1.688 9.149a.404.404 0 0 0 .211.43.403.403 0 0 0 .469-.078l2.754-2.849 1.39 5.204c.051.175.211.296.387.296a.4.4 0 0 0 .387-.504l-1.395-5.203 3.809 1.09a.4.4 0 0 0 .414-.644zm1.36 5.672c-.012-.003-.024-.003-.036-.007-.012 0-.023-.004-.039-.004a.398.398 0 0 0-.137.008h-.004a.417.417 0 0 0-.124.062l-.028.024c-.012.007-.02.015-.031.023l-2.32 2.398 1.296-7.02 4.633 5.434zm0 0"/>
</svg>
